docs/img/img1/strange_bg.svg

<svg width="1200" height="732" viewBox="0 0 1200 732" fill="none" xmlns="http://www.w3.org/2000/svg">
<path d="M285.44 0.947369L796.112 0.947413C820.542 0.947416 838.542 6.20859 850.114 16.7308C860.4 28.5684 865.543 46.9823 865.543 71.9727L865.543 102.939C865.543 127.929 860.4 145.686 850.114 156.208C838.542 168.046 820.542 173.964 796.112 173.964L776.467 173.964C759.752 173.964 746.895 178.568 737.894 187.775C728.894 198.297 724.394 212.108 724.394 229.206L724.394 249.6L1130.57 249.6C1155 249.6 1173 254.861 1184.57 265.383C1194.86 277.221 1200 295.635 1200 320.625L1200 660.975C1200 685.965 1194.86 703.721 1184.57 714.244C1173 726.081 1155 732 1130.57 732L69.4313 732C45.0017 732 27.6439 726.081 17.3578 714.244C5.78589 703.721 4.0245e-06 685.965 6.20923e-06 660.975L4.28627e-05 241.708C5.58987e-05 92.5929 4.74566 89.1242 57.4621 39.1435C108.893 -9.52201 199.294 0.947361 285.44 0.947369Z" fill="#0A7272"/>
</svg>

<svg width="1200" height="732" fill="none" xmlns="http://www.w3.org/2000/svg"><path d="M285.44.947h510.672c24.43 0 42.43 5.262 54.002 15.784 10.286 11.837 15.429 30.251 15.429 55.242v30.966c0 24.99-5.143 42.747-15.429 53.269-11.572 11.838-29.572 17.756-54.002 17.756h-19.645c-16.715 0-29.572 4.604-38.573 13.811-9 10.522-13.5 24.333-13.5 41.431V249.6h406.176c24.43 0 42.43 5.261 54 15.783 10.29 11.838 15.43 30.252 15.43 55.242v340.35c0 24.99-5.14 42.746-15.43 53.269C1173 726.081 1155 732 1130.57 732H69.431c-24.43 0-41.787-5.919-52.073-17.756C5.786 703.721 0 685.965 0 660.975V241.708C0 92.593 4.746 89.124 57.462 39.144 108.893-9.522 199.294.947 285.44.947z" fill="#0A7272"/></svg>
